views/clay-logo.svg

<svg width="308" height="111" viewBox="0 0 308 111" xmlns="http://www.w3.org/2000/svg"><title>Clay Logo</title><desc>Created with Sketch.</desc><g fill="none"><path d="M119.973 97.014c-16.469 0-26.796-10.718-26.796-24.837v-46.663c0-14.117 10.327-24.835 26.796-24.835s25.751 10.718 25.751 24.835v8.757c0 1.831-1.57 3.398-3.399 3.398h-11.242c-1.831 0-3.398-1.567-3.398-3.398v-8.757c0-4.314-2.353-8.758-7.712-8.758-5.883 0-8.365 4.444-8.365 8.758v46.663c0 4.314 2.482 8.759 8.365 8.759 5.359 0 7.712-4.444 7.712-8.759v-8.757c0-1.829 1.567-3.398 3.398-3.398h11.242c1.829 0 3.399 1.569 3.399 3.398v8.757c0 14.119-9.282 24.837-25.751 24.837zm70.261-1.569h-35.552c-1.832 0-3.398-1.57-3.398-3.398v-86.663c0-1.831 1.567-3.268 3.398-3.268h11.764c.869-.009 1.705.333 2.32.947.614.615.956 1.451.947 2.32v70.717c0 1.83 1.566 3.268 3.398 3.268h17.123c1.828 0 3.397 1.568 3.397 3.398v9.281c.001 1.828-1.569 3.398-3.397 3.398zm41.037-68.624c-.129-.916-.916-1.437-1.569-1.437-.653 0-1.437.521-1.437 1.437l-4.182 30.457c-.262 1.828.913 3.268 2.874 3.268h5.621c1.829 0 2.877-1.439 2.744-3.268l-4.051-30.457zm26.275 68.624h-11.896c-1.961 0-3.66-1.438-3.922-3.27l-2.746-14.77c-.391-1.829-2.09-3.398-3.922-3.398h-10.586c-1.961 0-3.66 1.569-3.922 3.398l-2.744 14.77c-.392 1.832-2.091 3.27-3.922 3.27h-11.894c-1.961 0-3.007-1.438-2.615-3.27l18.562-86.792c.391-1.831 2.09-3.268 4.051-3.268h15.556c1.829 0 3.66 1.437 4.052 3.268l18.561 86.792c.393 1.833-.784 3.27-2.613 3.27zm32.645-44.705c-.262.916-.653 2.223-.916 3.401-.129 1.175-.26 2.22-.26 3.136v34.77c0 1.828-1.438 3.398-3.399 3.398h-11.765c-1.828 0-3.397-1.57-3.397-3.398v-34.9c0-1.047-.13-2.223-.392-3.529-.131-1.046-.393-2.223-.783-3.007l-16.602-45.359c-.524-1.699.392-3.136 2.224-3.136h10.719c2.482 0 4.051 1.307 4.443 3.136l8.235 28.627c.261.916.913 1.308 1.437 1.308.654 0 1.176-.392 1.438-1.308l8.366-28.627c.524-1.829 1.831-3.136 4.313-3.136h10.851c1.959 0 2.874 1.437 2.221 3.136l-16.733 45.488z" fill="#A59B8B"/><g transform="translate(0 2)"><path d="M43.72 67.946c-.096.282-.253.79-.448 1.503-.321 1.168-.639 2.508-.935 4.004-2.023 10.22-2.023 21.569 1.356 32.958.358 1.218 1.629 1.907 2.836 1.546 1.207-.363 1.893-1.643 1.533-2.859-3.144-10.59-3.144-21.207-1.251-30.745.271-1.384.564-2.616.857-3.677.102-.368.193-.687.276-.954l.091-.289c.405-1.198-.23-2.506-1.42-2.916-1.195-.409-2.492.229-2.899 1.43h.004v-.001zm29.477 1.488l.091.29c.084.266.176.584.275.95.292 1.062.585 2.295.859 3.677 1.89 9.54 1.89 20.156-1.251 30.748-.363 1.216.321 2.495 1.531 2.86 1.207.36 2.479-.33 2.84-1.546 3.377-11.393 3.377-22.743 1.353-32.962-.294-1.498-.614-2.836-.933-4.004-.196-.715-.352-1.221-.448-1.502-.406-1.201-1.708-1.84-2.897-1.431-1.192.41-1.826 1.72-1.42 2.92zm-68.249 2.349c.429-9.363 4.232-15.207 10.365-18.487 2.242-1.2 4.662-1.975 7.1-2.4.869-.15 1.684-.245 2.417-.298.456-.031.794-.041.99-.039h-.003c1.259.021 2.299-.987 2.321-2.257.022-1.27-.98-2.315-2.239-2.339h-.038c-.311 0-.766.01-1.344.051-.886.061-1.854.175-2.884.354-2.884.504-5.759 1.421-8.464 2.869-7.53 4.03-12.275 11.322-12.782 22.335-.056 1.267.918 2.343 2.176 2.4 1.259.06 2.326-.92 2.383-2.189h.002zm117.849-.211c-.507-11.014-5.249-18.305-12.782-22.335-2.705-1.447-5.579-2.366-8.46-2.868-1.031-.179-2-.293-2.886-.354-.578-.041-1.031-.051-1.345-.051h-.034c-1.261.024-2.265 1.069-2.243 2.339.022 1.269 1.062 2.278 2.321 2.256.194-.003.531.007.985.037.737.051 1.55.148 2.42.3 2.435.426 4.858 1.198 7.1 2.4 6.133 3.278 9.936 9.124 10.366 18.487.057 1.267 1.125 2.248 2.383 2.188 1.259-.058 2.231-1.133 2.174-2.4l.001.001z" fill="#C8B585"/><path d="M61.176 88.227c27.971 0 50.647-9.051 50.647-37.22.001-28.172-27.113-51.007-50.647-51.007-23.533 0-50.647 22.835-50.647 51.006s22.675 37.221 50.647 37.221z" fill="#DDCFAC"/><path d="M56.178 55.275c.332 2.188 2.191 3.824 4.395 3.824 2.206 0 4.067-1.64 4.395-3.83.058-.379-.203-.729-.575-.783-.372-.061-.722.199-.777.574-.23 1.524-1.521 2.662-3.043 2.662-1.521 0-2.811-1.137-3.042-2.656-.058-.375-.406-.633-.777-.576-.375.055-.632.409-.575.783v.002h-.001z" fill="#907E59"/><ellipse fill="#907E59" cx="37.844" cy="39.791" rx="3.649" ry="5.744"/><ellipse fill="#907E59" cx="83.484" cy="39.791" rx="3.649" ry="5.744"/><path d="M72.507 1.702c17.039 7.78 31.707 25.434 31.707 45.967 0 27.728-22.369 36.638-49.962 36.638-11.349 0-21.811-1.51-30.199-5.212 9.273 6.746 22.739 9.346 37.729 9.346 27.969 0 50.644-9.049 50.644-37.219-.001-23.945-19.592-44.033-39.919-49.52" fill="#C8B585"/></g></g></svg>

<?xml version="1.0" encoding="UTF-8" standalone="no"?>
<svg width="308px" height="111px" viewBox="0 0 308 111" version="1.1" xmlns="http://www.w3.org/2000/svg" xmlns:xlink="http://www.w3.org/1999/xlink">
    <!-- Generator: Sketch 39.1 (31720) - http://www.bohemiancoding.com/sketch -->
    <title>Clay Logo</title>
    <desc>Created with Sketch.</desc>
    <defs></defs>
    <g id="Logos" stroke="none" stroke-width="1" fill="none" fill-rule="evenodd">
        <g id="Clay-Logo">
            <path d="M119.973,97.014 C103.504,97.014 93.177,86.296 93.177,72.177 L93.177,25.514 C93.177,11.397 103.504,0.679 119.973,0.679 C136.442,0.679 145.724,11.397 145.724,25.514 L145.724,34.271 C145.724,36.102 144.154,37.669 142.325,37.669 L131.083,37.669 C129.252,37.669 127.685,36.102 127.685,34.271 L127.685,25.514 C127.685,21.2 125.332,16.756 119.973,16.756 C114.09,16.756 111.608,21.2 111.608,25.514 L111.608,72.177 C111.608,76.491 114.09,80.936 119.973,80.936 C125.332,80.936 127.685,76.492 127.685,72.177 L127.685,63.42 C127.685,61.591 129.252,60.022 131.083,60.022 L142.325,60.022 C144.154,60.022 145.724,61.591 145.724,63.42 L145.724,72.177 C145.724,86.296 136.442,97.014 119.973,97.014 L119.973,97.014 L119.973,97.014 Z M190.234,95.445 L154.682,95.445 C152.85,95.445 151.284,93.875 151.284,92.047 L151.284,5.384 C151.284,3.553 152.851,2.116 154.682,2.116 L166.446,2.116 C167.315,2.107 168.151,2.449 168.766,3.063 C169.38,3.678 169.722,4.514 169.713,5.383 L169.713,76.1 C169.713,77.93 171.279,79.368 173.111,79.368 L190.234,79.368 C192.062,79.368 193.631,80.936 193.631,82.766 L193.631,92.047 C193.632,93.875 192.062,95.445 190.234,95.445 L190.234,95.445 L190.234,95.445 Z M231.271,26.821 C231.142,25.905 230.355,25.384 229.702,25.384 C229.049,25.384 228.265,25.905 228.265,26.821 L224.083,57.278 C223.821,59.106 224.996,60.546 226.957,60.546 L232.578,60.546 C234.407,60.546 235.455,59.107 235.322,57.278 L231.271,26.821 L231.271,26.821 L231.271,26.821 Z M257.546,95.445 L245.65,95.445 C243.689,95.445 241.99,94.007 241.728,92.175 L238.982,77.405 C238.591,75.576 236.892,74.007 235.06,74.007 L224.474,74.007 C222.513,74.007 220.814,75.576 220.552,77.405 L217.808,92.175 C217.416,94.007 215.717,95.445 213.886,95.445 L201.992,95.445 C200.031,95.445 198.985,94.007 199.377,92.175 L217.939,5.383 C218.33,3.552 220.029,2.115 221.99,2.115 L237.546,2.115 C239.375,2.115 241.206,3.552 241.598,5.383 L260.159,92.175 C260.552,94.008 259.375,95.445 257.546,95.445 L257.546,95.445 L257.546,95.445 Z M290.191,50.74 C289.929,51.656 289.538,52.963 289.275,54.141 C289.146,55.316 289.015,56.361 289.015,57.277 L289.015,92.047 C289.015,93.875 287.577,95.445 285.616,95.445 L273.851,95.445 C272.023,95.445 270.454,93.875 270.454,92.047 L270.454,57.147 C270.454,56.1 270.324,54.924 270.062,53.618 C269.931,52.572 269.669,51.395 269.279,50.611 L252.677,5.252 C252.153,3.553 253.069,2.116 254.901,2.116 L265.62,2.116 C268.102,2.116 269.671,3.423 270.063,5.252 L278.298,33.879 C278.559,34.795 279.211,35.187 279.735,35.187 C280.389,35.187 280.911,34.795 281.173,33.879 L289.539,5.252 C290.063,3.423 291.37,2.116 293.852,2.116 L304.703,2.116 C306.662,2.116 307.577,3.553 306.924,5.252 L290.191,50.74 L290.191,50.74 L290.191,50.74 Z" id="Shape" fill="#A59B8B"></path>
            <g id="Clay-Thing" transform="translate(0.000000, 2.000000)">
                <path d="M43.72,67.946 C43.624,68.228 43.467,68.736 43.272,69.449 C42.951,70.617 42.633,71.957 42.337,73.453 C40.314,83.673 40.314,95.022 43.693,106.411 C44.051,107.629 45.322,108.318 46.529,107.957 C47.736,107.594 48.422,106.314 48.062,105.098 C44.918,94.508 44.918,83.891 46.811,74.353 C47.082,72.969 47.375,71.737 47.668,70.676 C47.77,70.308 47.861,69.989 47.944,69.722 C47.989,69.569 48.022,69.473 48.035,69.433 C48.44,68.235 47.805,66.927 46.615,66.517 C45.42,66.108 44.123,66.746 43.716,67.947 L43.72,67.947 L43.72,67.946 Z M73.197,69.434 C73.211,69.473 73.242,69.571 73.288,69.724 C73.372,69.99 73.464,70.308 73.563,70.674 C73.855,71.736 74.148,72.969 74.422,74.351 C76.312,83.891 76.312,94.507 73.171,105.099 C72.808,106.315 73.492,107.594 74.702,107.959 C75.909,108.319 77.181,107.629 77.542,106.413 C80.919,95.02 80.919,83.67 78.895,73.451 C78.601,71.953 78.281,70.615 77.962,69.447 C77.766,68.732 77.61,68.226 77.514,67.945 C77.108,66.744 75.806,66.105 74.617,66.514 C73.425,66.924 72.791,68.234 73.197,69.434 L73.197,69.434 L73.197,69.434 Z M4.948,71.783 C5.377,62.42 9.18,56.576 15.313,53.296 C17.555,52.096 19.975,51.321 22.413,50.896 C23.282,50.746 24.097,50.651 24.83,50.598 C25.286,50.567 25.624,50.557 25.82,50.559 L25.817,50.559 C27.076,50.58 28.116,49.572 28.138,48.302 C28.16,47.032 27.158,45.987 25.899,45.963 L25.861,45.963 C25.55,45.963 25.095,45.973 24.517,46.014 C23.631,46.075 22.663,46.189 21.633,46.368 C18.749,46.872 15.874,47.789 13.169,49.237 C5.639,53.267 0.894,60.559 0.387,71.572 C0.331,72.839 1.305,73.915 2.563,73.972 C3.822,74.032 4.889,73.052 4.946,71.783 L4.948,71.783 L4.948,71.783 Z M122.797,71.572 C122.29,60.558 117.548,53.267 110.015,49.237 C107.31,47.79 104.436,46.871 101.555,46.369 C100.524,46.19 99.555,46.076 98.669,46.015 C98.091,45.974 97.638,45.964 97.324,45.964 L97.29,45.964 C96.029,45.988 95.025,47.033 95.047,48.303 C95.069,49.572 96.109,50.581 97.368,50.559 C97.361,50.559 97.361,50.559 97.368,50.559 C97.562,50.556 97.899,50.566 98.353,50.596 C99.09,50.647 99.903,50.744 100.773,50.896 C103.208,51.322 105.631,52.094 107.873,53.296 C114.006,56.574 117.809,62.42 118.239,71.783 C118.296,73.05 119.364,74.031 120.622,73.971 C121.881,73.913 122.853,72.838 122.796,71.571 L122.797,71.572 L122.797,71.572 Z" id="Shape_1_" fill="#C8B585"></path>
                <path d="M61.176,88.227 C89.147,88.227 111.823,79.176 111.823,51.007 C111.824,22.835 84.71,0 61.176,0 C37.643,0 10.529,22.835 10.529,51.006 C10.529,79.177 33.204,88.227 61.176,88.227 L61.176,88.227 L61.176,88.227 Z" id="Shape_2_" fill="#DDCFAC"></path>
                <path d="M56.178,55.275 C56.51,57.463 58.369,59.099 60.573,59.099 C62.779,59.099 64.64,57.459 64.968,55.269 C65.026,54.89 64.765,54.54 64.393,54.486 C64.021,54.425 63.671,54.685 63.616,55.06 C63.386,56.584 62.095,57.722 60.573,57.722 C59.052,57.722 57.762,56.585 57.531,55.066 C57.473,54.691 57.125,54.433 56.754,54.49 C56.379,54.545 56.122,54.899 56.179,55.273 L56.179,55.275 L56.178,55.275 Z" id="Shape_3_" fill="#907E59"></path>
                <ellipse id="Oval" fill="#907E59" cx="37.844" cy="39.791" rx="3.649" ry="5.744"></ellipse>
                <ellipse id="Oval_1_" fill="#907E59" cx="83.484" cy="39.791" rx="3.649" ry="5.744"></ellipse>
                <path d="M72.507,1.702 C89.546,9.482 104.214,27.136 104.214,47.669 C104.214,75.397 81.845,84.307 54.252,84.307 C42.903,84.307 32.441,82.797 24.053,79.095 C33.326,85.841 46.792,88.441 61.782,88.441 C89.751,88.441 112.426,79.392 112.426,51.222 C112.425,27.277 92.834,7.189 72.507,1.702" id="Shape_4_" fill="#C8B585"></path>
            </g>
        </g>
    </g>
</svg>
